X: 21359
T: Kerry Jig, The
R: slide
M: 12/8
K: Bminor
|:~B3 BAF ~B3 BAF|AcB AcB AFE EFA|
~B3 Bcd cBc ABA|1 Ace edc ~d3 dcA:|2 Ace edc ~d3 ~d3||
|:~f3 fed ~f3 ~a3|AcB AcB AFE EFA|
~B3 Bcd cBc ABA|1 Ace edc ~d3 ~d3:|2 Ace edc ~d3 dcA||

